resources/svg/laptop.svg

<svg xmlns="http://www.w3.org/2000/svg" viewBox="0 0 15 15" fill="currentColor"><path d="M2.5 1C1.67157 1 1 1.67157 1 2.5L1 10.5C1 11.3284 1.67157 12 2.5 12H12.5C13.3284 12 14 11.3284 14 10.5V2.5C14 1.67157 13.3284 1 12.5 1H2.5Z" fill="black"/><path d="M0 14H15V13H0V14Z" fill="black"/></svg>

<svg xmlns="http://www.w3.org/2000/svg" viewBox="0 0 15 15" fill="currentColor"><path d="M2.5 1A1.5 1.5 0 001 2.5v8A1.5 1.5 0 002.5 12h10a1.5 1.5 0 001.5-1.5v-8A1.5 1.5 0 0012.5 1h-10zM0 14h15v-1H0v1z" fill="currentColor"/></svg>
